; generated by PrusaSlicer 2.3.3+win64 on 2022-09-27 at 16:45:20 UTC


;
;

;
;
; 

; external perimeters extrusion width = 0.68mm
; perimeters extrusion width = 0.68mm
; infill extrusion width = 0.68mm
; solid infill extrusion width = 0.68mm
; top infill extrusion width = 0.60mm
; first layer extrusion width = 0.65mm

M73 P0 R29
M201 X1250 Y1250 Z400 E5000 ; sets maximum accelerations, mm/sec^2
M203 X180 Y180 Z12 E80 ; sets maximum feedrates, mm/sec
M204 P1250 R1250 T1250 ; sets acceleration (P, T) and retract acceleration (R), mm/sec^2
M205 X8.00 Y8.00 Z2.00 E10.00 ; sets the jerk limits, mm/sec
M205 S0 T0 ; sets the minimum extruding and travel feed rate, mm/sec
M107
;TYPE:Custom
G90 ; use absolute coordinates
M83 ; extruder relative mode
M104 S170 ; set extruder temp for bed leveling
M140 S60 ; set bed temp
M109 R170 ; wait for bed leveling temp
M190 S60 ; wait for bed temp
G28 ; home all without mesh bed level
G29 ; mesh bed leveling 
M104 S215 ; set extruder temp
G92 E0.0
G1 Y-2.0 X179 F2400
G1 Z3 F720
M109 S215 ; wait for extruder temp

; intro line
G1 X170 F1000
G1 Z0.2 F720
G1 X110.0 E8.0 F900
G1 X40.0 E10.0 F700
G92 E0.0

M221 S95 ; set flow
G21 ; set units to millimeters
G90 ; use absolute coordinates
M83 ; use relative distances for extrusion
M900 K0.12 ; Filament gcode LA 1.5
; ; Filament gcode LA 1.0
;LAYER_CHANGE
;Z:0.2
;HEIGHT:0.2
;BEFORE_LAYER_CHANGE
G92 E0.0
;0.2


G1 Z0.200 F9000.000
;AFTER_LAYER_CHANGE
;0.2
; printing object 0.6nozzle-0.35layer-base.stl id:0 copy 0
G1 E-3.20000 F4200.000
G1 Z0.400 F9000.000
G1 X142.699 Y58.461
G1 Z0.200
G1 E3.20000 F2400.000
M204 S1000
;TYPE:External perimeter
;WIDTH:0.65
G1 F1200.000
G1 X142.913 Y57.980 E0.02659
G1 X143.192 Y57.533 E0.02659
G1 X143.531 Y57.129 E0.02659
G1 X143.923 Y56.777 E0.02659
G1 X144.359 Y56.482 E0.02659
G1 X144.833 Y56.251 E0.02659
G1 X145.334 Y56.088 E0.02659
G1 X145.853 Y55.997 E0.02659
G1 X146.379 Y55.979 E0.02659
G1 X146.903 Y56.034 E0.02659
G1 X147.414 Y56.161 E0.02659
G1 X147.903 Y56.358 E0.02659
G1 X148.359 Y56.622 E0.02659
G1 X148.774 Y56.946 E0.02659
G1 X149.140 Y57.325 E0.02659
G1 X149.450 Y57.751 E0.02660
G1 X149.697 Y58.217 E0.02661
G1 X149.877 Y58.713 E0.02665
G1 X149.982 Y59.233 E0.02678
G1 X150.007 Y59.752 E0.02624
G1 X149.982 Y60.272 E0.02627
G1 X149.877 Y60.791 E0.02674
G1 X149.697 Y61.288 E0.02667
G1 X149.450 Y61.754 E0.02661
G1 X149.140 Y62.180 E0.02660
G1 X148.774 Y62.559 E0.02659
G1 X148.359 Y62.883 E0.02659
G1 X147.903 Y63.147 E0.02661
G1 X147.413 Y63.344 E0.02665
M73 P1 R29
G1 X146.897 Y63.467 E0.02677
G1 X146.378 Y63.511 E0.02631
G1 X145.858 Y63.501 E0.02625
G1 X145.337 Y63.415 E0.02665
G1 X144.834 Y63.254 E0.02667
G1 X144.359 Y63.023 E0.02663
G1 X143.923 Y62.728 E0.02660
G1 X143.531 Y62.376 E0.02659
G1 X143.350 Y62.160 E0.01421
G1 X143.192 Y61.972 E0.01238
G1 X142.913 Y61.525 E0.02659
G1 X142.699 Y61.044 E0.02659
G1 X142.554 Y60.538 E0.02659
G1 X142.480 Y60.016 E0.02659
G1 X142.480 Y59.489 E0.02659
G1 X142.554 Y58.967 E0.02659
G1 X142.674 Y58.547 E0.02205
M204 S1250
G1 E-2.24000 F4200.000
;WIPE_START
G1 F7200.000
G1 X142.913 Y57.980 E-0.34142
G1 X143.192 Y57.533 E-0.29196
G1 X143.516 Y57.148 E-0.27863
;WIPE_END
G1 E-0.04800 F4200.000
G1 Z0.400 F9000.000
G1 X145.636 Y37.471
G1 Z0.200
G1 E3.20000 F2400.000
M204 S1000
G1 F1200.000
G1 X145.462 Y37.446 E0.00887
G1 X144.956 Y37.301 E0.02659
G1 X144.475 Y37.087 E0.02659
G1 X144.028 Y36.808 E0.02659
G1 X143.826 Y36.638 E0.01330
G1 X143.624 Y36.469 E0.01330
G1 X143.272 Y36.077 E0.02659
G1 X142.977 Y35.641 E0.02659
G1 X142.746 Y35.167 E0.02659
G1 X142.583 Y34.666 E0.02659
G1 X142.492 Y34.147 E0.02659
G1 X142.474 Y33.621 E0.02659
G1 X142.529 Y33.097 E0.02659
G1 X142.656 Y32.586 E0.02659
G1 X142.853 Y32.097 E0.02659
G1 X143.117 Y31.641 E0.02659
G1 X143.441 Y31.226 E0.02659
G1 X143.820 Y30.860 E0.02659
G1 X144.246 Y30.550 E0.02660
G1 X144.712 Y30.303 E0.02661
G1 X145.208 Y30.123 E0.02666
G1 X145.726 Y30.017 E0.02669
G1 X146.249 Y29.993 E0.02642
G1 X146.767 Y30.018 E0.02618
G1 X147.286 Y30.123 E0.02674
G1 X147.783 Y30.303 E0.02667
G1 X148.249 Y30.550 E0.02661
G1 X148.675 Y30.860 E0.02660
G1 X149.054 Y31.226 E0.02659
G1 X149.378 Y31.641 E0.02659
G1 X149.642 Y32.097 E0.02661
G1 X149.839 Y32.587 E0.02665
G1 X149.962 Y33.103 E0.02677
G1 X150.006 Y33.622 E0.02631
G1 X149.996 Y34.142 E0.02625
G1 X149.910 Y34.663 E0.02665
G1 X149.749 Y35.166 E0.02667
G1 X149.518 Y35.641 E0.02663
G1 X149.223 Y36.077 E0.02660
G1 X148.871 Y36.469 E0.02659
G1 X148.467 Y36.808 E0.02659
G1 X148.020 Y37.087 E0.02659
G1 X147.539 Y37.301 E0.02659
G1 X147.033 Y37.446 E0.02659
G1 X146.511 Y37.520 E0.02659
G1 X145.984 Y37.520 E0.02659
G1 X145.725 Y37.483 E0.01319
M204 S1250
G1 E-2.24000 F4200.000
;WIPE_START
G1 F7200.000
G1 X145.462 Y37.446 E-0.14720
G1 X144.956 Y37.301 E-0.29196
G1 X144.475 Y37.087 E-0.29196
G1 X144.198 Y36.914 E-0.18088
;WIPE_END
G1 E-0.04800 F4200.000
G1 Z0.400 F9000.000
G1 X123.957 Y34.424
G1 Z0.200
G1 E3.20000 F2400.000
M204 S1000
G1 F1200.000
G1 X123.941 Y34.538 E0.00580
G1 X123.796 Y35.044 E0.02659
G1 X123.582 Y35.525 E0.02659
G1 X123.303 Y35.972 E0.02659
G1 X123.133 Y36.174 E0.01330
G1 X122.964 Y36.376 E0.01330
G1 X122.572 Y36.728 E0.02659
G1 X122.136 Y37.023 E0.02659
G1 X121.662 Y37.254 E0.02659
G1 X121.161 Y37.417 E0.02659
G1 X120.642 Y37.508 E0.02659
G1 X120.116 Y37.526 E0.02659
G1 X119.592 Y37.471 E0.02659
G1 X119.081 Y37.344 E0.02659
G1 X118.592 Y37.147 E0.02659
G1 X118.136 Y36.883 E0.02659
G1 X117.721 Y36.559 E0.02659
G1 X117.355 Y36.180 E0.02659
G1 X117.045 Y35.754 E0.02660
G1 X116.798 Y35.288 E0.02661
G1 X116.618 Y34.791 E0.02667
G1 X116.513 Y34.272 E0.02674
G1 X116.488 Y33.753 E0.02627
G1 X116.513 Y33.233 E0.02627
G1 X116.618 Y32.714 E0.02674
G1 X116.798 Y32.217 E0.02667
G1 X117.045 Y31.751 E0.02661
G1 X117.355 Y31.325 E0.02660
G1 X117.721 Y30.946 E0.02659
G1 X118.136 Y30.622 E0.02659
G1 X118.592 Y30.358 E0.02660
G1 X119.082 Y30.161 E0.02665
G1 X119.595 Y30.037 E0.02662
G1 X120.121 Y29.994 E0.02664
G1 X120.637 Y30.004 E0.02608
G1 X121.158 Y30.090 E0.02665
G1 X121.661 Y30.251 E0.02667
G1 X122.136 Y30.482 E0.02663
G1 X122.572 Y30.777 E0.02660
G1 X122.964 Y31.129 E0.02659
G1 X123.303 Y31.533 E0.02659
G1 X123.582 Y31.980 E0.02659
G1 X123.796 Y32.461 E0.02659
G1 X123.941 Y32.967 E0.02659
G1 X124.015 Y33.489 E0.02659
G1 X124.015 Y34.016 E0.02659
G1 X123.970 Y34.335 E0.01625
M204 S1250
G1 E-2.24000 F4200.000
;WIPE_START
G1 F7200.000
G1 X123.941 Y34.538 E-0.11351
G1 X123.796 Y35.044 E-0.29196
G1 X123.582 Y35.525 E-0.29196
G1 X123.377 Y35.854 E-0.21457
;WIPE_END
G1 E-0.04800 F4200.000
G1 Z0.400 F9000.000
G1 X120.919 Y56.043
G1 Z0.200
G1 E3.20000 F2400.000
M204 S1000
G1 F1200.000
G1 X121.033 Y56.059 E0.00580
G1 X121.539 Y56.204 E0.02659
G1 X122.020 Y56.418 E0.02659
G1 X122.467 Y56.697 E0.02659
G1 X122.871 Y57.036 E0.02659
G1 X123.223 Y57.428 E0.02659
G1 X123.518 Y57.864 E0.02659
G1 X123.749 Y58.338 E0.02659
G1 X123.912 Y58.839 E0.02659
G1 X124.003 Y59.358 E0.02659
G1 X124.021 Y59.884 E0.02659
G1 X123.966 Y60.408 E0.02659
G1 X123.839 Y60.919 E0.02659
G1 X123.642 Y61.408 E0.02659
G1 X123.378 Y61.864 E0.02659
G1 X123.054 Y62.279 E0.02659
G1 X122.675 Y62.645 E0.02659
G1 X122.249 Y62.955 E0.02660
G1 X121.783 Y63.202 E0.02661
G1 X121.286 Y63.382 E0.02667
G1 X120.767 Y63.487 E0.02674
G1 X120.248 Y63.512 E0.02626
G1 X119.728 Y63.487 E0.02627
G1 X119.209 Y63.382 E0.02674
G1 X118.712 Y63.202 E0.02667
G1 X118.246 Y62.955 E0.02661
G1 X117.820 Y62.645 E0.02660
G1 X117.441 Y62.279 E0.02659
G1 X117.117 Y61.864 E0.02659
G1 X116.853 Y61.408 E0.02661
G1 X116.656 Y60.918 E0.02667
G1 X116.533 Y60.403 E0.02674
G1 X116.489 Y59.883 E0.02633
G1 X116.499 Y59.363 E0.02625
G1 X116.585 Y58.842 E0.02665
G1 X116.746 Y58.339 E0.02667
G1 X116.977 Y57.864 E0.02663
G1 X117.272 Y57.428 E0.02660
G1 X117.624 Y57.036 E0.02659
G1 X118.028 Y56.697 E0.02659
G1 X118.475 Y56.418 E0.02659
G1 X118.956 Y56.204 E0.02659
G1 X119.462 Y56.059 E0.02659
G1 X119.984 Y55.985 E0.02659
G1 X120.511 Y55.985 E0.02659
G1 X120.830 Y56.030 E0.01625
M204 S1250
G1 E-2.24000 F4200.000
;WIPE_START
G1 F7200.000
G1 X121.033 Y56.059 E-0.11353
G1 X121.539 Y56.204 E-0.29196
G1 X122.020 Y56.418 E-0.29196
G1 X122.349 Y56.623 E-0.21455
;WIPE_END
G1 E-0.04800 F4200.000
G1 Z0.400 F9000.000
G1 X115.886 Y56.028
G1 Z0.200
G1 E3.20000 F2400.000
M204 S1000
G1 F1200.000
G1 X115.897 Y35.268 E1.04793
G1 X115.882 Y33.771 E0.07558
G1 X115.897 Y29.810 E0.19994
G1 X115.918 Y29.670 E0.00715
G1 X115.971 Y29.563 E0.00600
G1 X116.041 Y29.488 E0.00521
G1 X116.127 Y29.438 E0.00503
G1 X116.313 Y29.402 E0.00951
G1 X150.191 Y29.402 E1.71015
G1 X150.327 Y29.422 E0.00692
G1 X150.432 Y29.472 E0.00589
G1 X150.512 Y29.546 E0.00552
G1 X150.565 Y29.637 E0.00528
G1 X150.596 Y29.799 E0.00833
G1 X150.611 Y33.772 E0.20056
G1 X150.598 Y58.237 E1.23497
G1 X150.613 Y59.734 E0.07558
G1 X150.598 Y63.695 E0.19994
G1 X150.577 Y63.835 E0.00715
G1 X150.524 Y63.942 E0.00600
G1 X150.454 Y64.017 E0.00521
G1 X150.368 Y64.067 E0.00503
G1 X150.182 Y64.103 E0.00954
G1 X146.228 Y64.116 E0.19959
G1 X121.763 Y64.103 E1.23497
G1 X120.266 Y64.118 E0.07558
G1 X116.305 Y64.103 E0.19994
G1 X116.165 Y64.082 E0.00715
G1 X116.058 Y64.029 E0.00600
G1 X115.983 Y63.959 E0.00521
G1 X115.933 Y63.873 E0.00503
G1 X115.897 Y63.687 E0.00954
G1 X115.886 Y56.118 E0.38209
M204 S1250
G1 E-2.24000 F4200.000
;WIPE_START
G1 F7200.000
G1 X115.887 Y54.472 E-0.91200
;WIPE_END
G1 E-0.04800 F4200.000
G1 Z0.400 F9000.000
G1 X118.547 Y63.929
G1 Z0.200
G1 E3.20000 F2400.000
M204 S1000
;TYPE:Solid infill
;WIDTH:0.722864
G1 F1200.000
G1 X116.346 Y61.729 E0.17596
G1 X116.349 Y62.694 E0.05455
G1 X117.581 Y63.926 E0.09851
M204 S1250
G1 E-2.24000 F4200.000
;WIPE_START
G1 F7200.000
G1 X116.418 Y62.762 E-0.91200
;WIPE_END
G1 E-0.04800 F4200.000
G1 Z0.400 F9000.000
G1 X150.424 Y61.655
G1 Z0.200
G1 E3.20000 F2400.000
M204 S1000
;WIDTH:0.680682
G1 F1200.000
G1 X150.148 Y61.380 E0.02065
G1 X149.846 Y61.979 E0.03560
G1 X150.148 Y62.282 E0.02267
G1 X150.144 Y63.180 E0.04764
G1 X149.464 Y62.500 E0.05100
G1 X149.013 Y62.950 E0.03382
G1 X149.711 Y63.649 E0.05239
G1 X148.812 Y63.652 E0.04767
G1 X148.493 Y63.332 E0.02400
G1 X148.102 Y63.557 E0.02388
G1 X147.898 Y63.639 E0.01169
G1 X148.186 Y63.927 E0.02158
M204 S1250
G1 E-2.24000 F4200.000
;WIPE_START
G1 F7200.000
G1 X147.898 Y63.639 E-0.22555
G1 X148.102 Y63.557 E-0.12213
G1 X148.493 Y63.332 E-0.24958
G1 X148.812 Y63.652 E-0.25075
G1 X148.928 Y63.651 E-0.06398
;WIPE_END
G1 E-0.04800 F4200.000
G1 Z0.400 F9000.000
G1 X149.863 Y29.585
G1 Z0.200
G1 E3.20000 F2400.000
M204 S1000
;WIDTH:0.712362
G1 F1200.000
G1 X150.141 Y29.862 E0.02185
G1 X150.144 Y30.812 E0.05290
G1 X149.190 Y29.858 E0.07516
G1 X148.243 Y29.858 E0.05270
G1 X150.422 Y32.037 E0.17155
M204 S1250
G1 E-2.24000 F4200.000
;WIPE_START
G1 F7200.000
G1 X149.258 Y30.873 E-0.91200
;WIPE_END
G1 E-0.04800 F4200.000
G1 Z0.400 F9000.000
G1 X143.571 Y29.585
G1 Z0.200
G1 E3.20000 F2400.000
M204 S1000
;WIDTH:0.650397
G1 F1200.000
G1 X144.099 Y30.113 E0.03773
G1 X143.591 Y30.464 E0.03120
G1 X142.985 Y29.858 E0.04328
G1 X142.126 Y29.858 E0.04339
G1 X143.146 Y30.878 E0.07287
G1 X142.763 Y31.354 E0.03087
G1 X141.267 Y29.858 E0.10689
G1 X140.408 Y29.858 E0.04339
G1 X142.445 Y31.895 E0.14551
G1 X142.205 Y32.514 E0.03354
G1 X139.548 Y29.858 E0.18975
G1 X138.689 Y29.858 E0.04339
G1 X142.057 Y33.226 E0.24058
G1 X142.017 Y33.605 E0.01926
G1 X142.033 Y34.061 E0.02305
G1 X137.557 Y29.585 E0.31976
M204 S1250
M73 P2 R29
G1 E-2.24000 F4200.000
;WIPE_START
G1 F7200.000
G1 X138.721 Y30.748 E-0.91200
;WIPE_END
G1 E-0.04800 F4200.000
G1 Z0.400 F9000.000
G1 X150.427 Y36.441
G1 Z0.200
G1 E3.20000 F2400.000
M204 S1000
G1 F1200.000
G1 X149.890 Y35.903 E0.03840
G1 X149.537 Y36.410 E0.03117
G1 X150.154 Y37.027 E0.04407
G1 X150.153 Y37.885 E0.04337
M73 P2 R28
G1 X149.121 Y36.853 E0.07373
G1 X148.643 Y37.234 E0.03088
G1 X150.153 Y38.744 E0.10783
G1 X150.152 Y39.603 E0.04337
G1 X148.100 Y37.550 E0.14663
G1 X147.695 Y37.730 E0.02236
G1 X147.482 Y37.791 E0.01121
G1 X150.152 Y40.461 E0.19073
G1 X150.151 Y41.320 E0.04337
G1 X146.774 Y37.942 E0.24126
G1 X146.543 Y37.975 E0.01179
G1 X145.947 Y37.974 E0.03011
G1 X150.151 Y42.178 E0.30034
G1 X150.150 Y43.037 E0.04337
G1 X144.861 Y37.747 E0.37787
G1 X144.260 Y37.490 E0.03300
G1 X143.760 Y37.177 E0.02983
G1 X143.307 Y36.797 E0.02983
G1 X142.912 Y36.358 E0.02983
G1 X142.582 Y35.869 E0.02983
G1 X142.323 Y35.338 E0.02983
G1 X142.261 Y35.148 E0.01011
G1 X136.971 Y29.858 E0.37789
G1 X136.112 Y29.858 E0.04339
G1 X150.150 Y43.896 E1.00280
G1 X150.150 Y44.754 E0.04337
G1 X135.253 Y29.858 E1.06413
G1 X134.394 Y29.858 E0.04339
G1 X150.149 Y45.613 E1.12547
G1 X150.149 Y46.472 E0.04337
G1 X133.535 Y29.858 E1.18680
G1 X132.676 Y29.858 E0.04339
G1 X150.148 Y47.330 E1.24814
G1 X150.148 Y48.189 E0.04337
G1 X131.817 Y29.858 E1.30948
G1 X130.957 Y29.858 E0.04339
G1 X150.147 Y49.048 E1.37081
G1 X150.147 Y49.906 E0.04337
G1 X130.098 Y29.858 E1.43215
G1 X129.239 Y29.858 E0.04339
G1 X150.146 Y50.765 E1.49349
G1 X150.146 Y51.623 E0.04337
G1 X128.380 Y29.858 E1.55482
G1 X127.521 Y29.858 E0.04339
G1 X150.145 Y52.482 E1.61616
M73 P3 R28
G1 X150.145 Y53.341 E0.04337
G1 X126.662 Y29.858 E1.67750
G1 X125.803 Y29.858 E0.04339
G1 X150.144 Y54.199 E1.73883
G1 X150.144 Y55.058 E0.04337
G1 X124.944 Y29.858 E1.80017
G1 X124.085 Y29.858 E0.04339
G1 X150.144 Y55.917 E1.86151
G1 X150.143 Y56.775 E0.04337
G1 X123.226 Y29.858 E1.92284
G1 X122.366 Y29.858 E0.04339
G1 X150.143 Y57.634 E1.98418
G1 X150.142 Y58.108 E0.02396
G1 X149.837 Y57.510 E0.03395
G1 X149.490 Y57.032 E0.02983
G1 X149.080 Y56.607 E0.02983
G1 X148.614 Y56.243 E0.02983
G1 X148.103 Y55.948 E0.02983
G1 X147.555 Y55.727 E0.02983
G1 X147.317 Y55.668 E0.01241
G1 X124.334 Y32.684 E1.64181
G1 X124.388 Y32.872 E0.00990
G1 X124.470 Y33.457 E0.02983
G1 X124.470 Y33.679 E0.01122
G1 X146.316 Y55.525 E1.56054
G1 X145.805 Y55.543 E0.02581
G1 X145.524 Y55.593 E0.01442
G1 X124.409 Y34.478 E1.50831
G1 X124.388 Y34.633 E0.00788
G1 X124.236 Y35.163 E0.02789
G1 X144.842 Y55.770 E1.47200
M73 P4 R28
G1 X144.662 Y55.828 E0.00955
G1 X144.245 Y56.032 E0.02345
G1 X123.972 Y35.759 E1.44814
G1 X123.637 Y36.282 E0.03141
G1 X143.719 Y56.365 E1.43458
G1 X143.258 Y56.763 E0.03077
G1 X123.237 Y36.742 E1.43016
G1 X122.776 Y37.140 E0.03077
G1 X142.858 Y57.223 E1.43458
G1 X142.523 Y57.746 E0.03141
G1 X122.250 Y37.474 E1.44814
G1 X121.833 Y37.677 E0.02344
G1 X121.653 Y37.735 E0.00956
G1 X142.259 Y58.342 E1.47201
G1 X142.107 Y58.872 E0.02788
G1 X142.086 Y59.027 E0.00788
G1 X120.971 Y37.912 E1.50831
G1 X120.690 Y37.962 E0.01441
G1 X120.179 Y37.980 E0.02581
G1 X142.025 Y59.826 E1.56055
G1 X142.025 Y60.048 E0.01122
G1 X142.107 Y60.633 E0.02983
G1 X142.161 Y60.821 E0.00991
G1 X119.178 Y37.837 E1.64183
G1 X118.940 Y37.778 E0.01240
G1 X118.392 Y37.557 E0.02983
G1 X117.881 Y37.262 E0.02983
G1 X117.415 Y36.898 E0.02983
G1 X117.005 Y36.473 E0.02983
G1 X116.658 Y35.995 E0.02983
G1 X116.353 Y35.397 E0.03395
G1 X116.352 Y35.871 E0.02397
G1 X144.141 Y63.659 E1.98504
G1 X143.281 Y63.659 E0.04342
G1 X116.352 Y36.730 E1.92367
M73 P5 R28
G1 X116.351 Y37.588 E0.04337
G1 X142.421 Y63.658 E1.86230
G1 X141.562 Y63.658 E0.04342
G1 X116.351 Y38.447 E1.80093
G1 X116.351 Y39.306 E0.04337
G1 X140.702 Y63.657 E1.73956
G1 X139.843 Y63.657 E0.04342
G1 X116.350 Y40.164 E1.67819
G1 X116.350 Y41.023 E0.04337
G1 X138.983 Y63.657 E1.61682
M73 P5 R27
G1 X138.124 Y63.656 E0.04342
G1 X116.349 Y41.882 E1.55545
G1 X116.349 Y42.740 E0.04337
G1 X137.264 Y63.656 E1.49408
G1 X136.404 Y63.655 E0.04342
G1 X116.348 Y43.599 E1.43271
G1 X116.348 Y44.458 E0.04337
G1 X135.545 Y63.655 E1.37134
G1 X134.685 Y63.654 E0.04342
G1 X116.347 Y45.316 E1.30997
G1 X116.347 Y46.175 E0.04337
G1 X133.826 Y63.654 E1.24860
M73 P6 R27
G1 X132.966 Y63.653 E0.04342
G1 X116.346 Y47.034 E1.18723
G1 X116.346 Y47.892 E0.04337
G1 X132.107 Y63.653 E1.12586
G1 X131.247 Y63.652 E0.04342
G1 X116.345 Y48.751 E1.06449
G1 X116.345 Y49.609 E0.04337
G1 X130.387 Y63.652 E1.00312
G1 X129.528 Y63.651 E0.04342
G1 X124.234 Y58.357 E0.37818
G1 X124.172 Y58.167 E0.01012
G1 X123.913 Y57.636 E0.02983
G1 X123.583 Y57.147 E0.02983
