; generated by PrusaSlicer 2.3.3+win64 on 2022-09-27 at 16:44:44 UTC


;
;

;
;
; 

; external perimeters extrusion width = 0.68mm
; perimeters extrusion width = 0.68mm
; infill extrusion width = 0.68mm
; solid infill extrusion width = 0.68mm
; top infill extrusion width = 0.60mm
; first layer extrusion width = 0.65mm

M73 P0 R69
M201 X1250 Y1250 Z400 E5000 ; sets maximum accelerations, mm/sec^2
M203 X180 Y180 Z12 E80 ; sets maximum feedrates, mm/sec
M204 P1250 R1250 T1250 ; sets acceleration (P, T) and retract acceleration (R), mm/sec^2
M205 X8.00 Y8.00 Z2.00 E10.00 ; sets the jerk limits, mm/sec
M205 S0 T0 ; sets the minimum extruding and travel feed rate, mm/sec
M107
;TYPE:Custom
G90 ; use absolute coordinates
M83 ; extruder relative mode
M104 S170 ; set extruder temp for bed leveling
M140 S60 ; set bed temp
M109 R170 ; wait for bed leveling temp
M190 S60 ; wait for bed temp
G28 ; home all without mesh bed level
G29 ; mesh bed leveling 
M104 S215 ; set extruder temp
G92 E0.0
G1 Y-2.0 X179 F2400
G1 Z3 F720
M109 S215 ; wait for extruder temp

; intro line
G1 X170 F1000
G1 Z0.2 F720
G1 X110.0 E8.0 F900
G1 X40.0 E10.0 F700
G92 E0.0

M221 S95 ; set flow
G21 ; set units to millimeters
G90 ; use absolute coordinates
M83 ; use relative distances for extrusion
M900 K0.12 ; Filament gcode LA 1.5
; ; Filament gcode LA 1.0
;LAYER_CHANGE
;Z:0.2
;HEIGHT:0.2
;BEFORE_LAYER_CHANGE
G92 E0.0
;0.2


G1 Z0.200 F9000.000
;AFTER_LAYER_CHANGE
;0.2
; printing object 0.6nozzle-0.35layer-2x2x6-3div.stl id:0 copy 0
G1 E-3.20000 F4200.000
G1 Z0.400 F9000.000
G1 X58.283 Y99.925
G1 Z0.200
G1 E3.20000 F2400.000
M204 S1000
;TYPE:External perimeter
;WIDTH:0.65
G1 F1200.000
G1 X59.456 Y99.925 E0.05921
G1 X59.684 Y100.020 E0.01247
G1 X67.475 Y107.792 E0.55553
G1 X67.752 Y107.986 E0.01707
G1 X68.053 Y108.140 E0.01707
G1 X68.231 Y108.201 E0.00952
G1 X68.373 Y108.250 E0.00755
G1 X68.705 Y108.314 E0.01707
G1 X69.042 Y108.332 E0.01707
G1 X69.379 Y108.303 E0.01707
G1 X69.709 Y108.226 E0.01707
G1 X69.861 Y108.168 E0.00822
G1 X70.024 Y108.105 E0.00885
G1 X70.320 Y107.941 E0.01707
G1 X70.590 Y107.738 E0.01706
G1 X78.308 Y100.020 E0.55100
G1 X78.537 Y99.925 E0.01247
G1 X79.717 Y99.925 E0.05960
G1 X80.075 Y100.283 E0.02552
G1 X80.075 Y101.456 E0.05921
G1 X79.980 Y101.684 E0.01247
G1 X72.208 Y109.475 E0.55553
G1 X72.014 Y109.752 E0.01707
G1 X71.860 Y110.053 E0.01707
G1 X71.799 Y110.231 E0.00952
G1 X71.750 Y110.373 E0.00755
G1 X71.686 Y110.705 E0.01707
G1 X71.668 Y111.042 E0.01707
G1 X71.697 Y111.379 E0.01707
G1 X71.774 Y111.709 E0.01707
G1 X71.874 Y111.971 E0.01421
G1 X72.060 Y112.322 E0.02006
G1 X72.262 Y112.590 E0.01691
G1 X79.980 Y120.308 E0.55100
G1 X80.075 Y120.537 E0.01247
G1 X80.075 Y121.717 E0.05960
G1 X79.717 Y122.075 E0.02552
G1 X78.544 Y122.075 E0.05921
G1 X78.316 Y121.980 E0.01247
G1 X70.525 Y114.208 E0.55553
G1 X70.248 Y114.014 E0.01707
G1 X69.947 Y113.860 E0.01707
G1 X69.648 Y113.757 E0.01594
G1 X69.294 Y113.686 E0.01826
G1 X68.958 Y113.668 E0.01700
G1 X68.621 Y113.697 E0.01707
G1 X68.291 Y113.774 E0.01707
G1 X68.115 Y113.841 E0.00952
G1 X67.976 Y113.895 E0.00755
G1 X67.680 Y114.059 E0.01707
G1 X67.410 Y114.262 E0.01706
G1 X59.692 Y121.980 E0.55100
G1 X59.463 Y122.075 E0.01247
G1 X58.283 Y122.075 E0.05960
G1 X57.925 Y121.717 E0.02552
G1 X57.925 Y120.544 E0.05921
G1 X58.020 Y120.316 E0.01247
G1 X65.792 Y112.525 E0.55553
G1 X65.986 Y112.248 E0.01707
G1 X66.140 Y111.947 E0.01707
G1 X66.250 Y111.627 E0.01706
G1 X66.314 Y111.295 E0.01707
G1 X66.332 Y110.958 E0.01707
G1 X66.303 Y110.621 E0.01707
G1 X66.226 Y110.291 E0.01707
G1 X66.159 Y110.115 E0.00952
G1 X66.105 Y109.976 E0.00755
G1 X65.941 Y109.680 E0.01707
G1 X65.738 Y109.410 E0.01706
G1 X58.020 Y101.692 E0.55100
G1 X57.925 Y101.463 E0.01247
G1 X57.925 Y100.283 E0.05960
G1 X58.219 Y99.989 E0.02098
M204 S1250
G1 E-2.24000 F4200.000
;WIPE_START
G1 F7200.000
G1 X59.456 Y99.925 E-0.68622
G1 X59.684 Y100.020 E-0.13694
G1 X59.797 Y100.133 E-0.08884
;WIPE_END
G1 E-0.04800 F4200.000
G1 Z0.400 F9000.000
G1 X99.925 Y100.283
G1 Z0.200
G1 E3.20000 F2400.000
M204 S1000
G1 F1200.000
G1 X100.283 Y99.925 E0.02552
G1 X101.456 Y99.925 E0.05921
G1 X101.684 Y100.020 E0.01247
G1 X109.475 Y107.792 E0.55553
G1 X109.752 Y107.986 E0.01707
G1 X110.053 Y108.140 E0.01707
G1 X110.231 Y108.201 E0.00952
G1 X110.373 Y108.250 E0.00755
G1 X110.705 Y108.314 E0.01707
G1 X111.042 Y108.332 E0.01707
G1 X111.379 Y108.303 E0.01707
G1 X111.709 Y108.226 E0.01707
G1 X111.885 Y108.159 E0.00952
G1 X112.024 Y108.105 E0.00755
G1 X112.320 Y107.941 E0.01707
G1 X112.590 Y107.738 E0.01706
G1 X120.308 Y100.020 E0.55100
G1 X120.537 Y99.925 E0.01247
G1 X121.717 Y99.925 E0.05960
G1 X122.075 Y100.283 E0.02552
G1 X122.075 Y101.456 E0.05921
G1 X121.980 Y101.684 E0.01247
G1 X114.208 Y109.475 E0.55553
G1 X114.014 Y109.752 E0.01707
G1 X113.860 Y110.053 E0.01707
G1 X113.799 Y110.231 E0.00952
G1 X113.750 Y110.373 E0.00755
G1 X113.686 Y110.705 E0.01707
G1 X113.668 Y111.042 E0.01707
G1 X113.697 Y111.379 E0.01707
G1 X113.774 Y111.709 E0.01707
G1 X113.841 Y111.885 E0.00952
G1 X113.895 Y112.024 E0.00755
G1 X114.059 Y112.320 E0.01707
G1 X114.262 Y112.590 E0.01706
G1 X121.980 Y120.308 E0.55100
G1 X122.075 Y120.537 E0.01247
G1 X122.075 Y121.717 E0.05960
G1 X121.717 Y122.075 E0.02552
G1 X120.544 Y122.075 E0.05921
G1 X120.316 Y121.980 E0.01247
G1 X112.525 Y114.208 E0.55553
G1 X112.248 Y114.014 E0.01707
G1 X111.947 Y113.860 E0.01707
G1 X111.769 Y113.799 E0.00952
G1 X111.627 Y113.750 E0.00755
G1 X111.295 Y113.686 E0.01707
G1 X110.958 Y113.668 E0.01707
G1 X110.621 Y113.697 E0.01707
G1 X110.291 Y113.774 E0.01707
G1 X110.115 Y113.841 E0.00952
G1 X109.976 Y113.895 E0.00755
G1 X109.680 Y114.059 E0.01707
G1 X109.410 Y114.262 E0.01706
G1 X101.692 Y121.980 E0.55100
G1 X101.463 Y122.075 E0.01247
G1 X100.283 Y122.075 E0.05960
G1 X99.925 Y121.717 E0.02552
G1 X99.925 Y120.544 E0.05921
G1 X100.020 Y120.316 E0.01247
G1 X107.792 Y112.525 E0.55553
G1 X107.986 Y112.248 E0.01707
G1 X108.140 Y111.947 E0.01707
G1 X108.201 Y111.769 E0.00952
G1 X108.250 Y111.627 E0.00755
G1 X108.314 Y111.295 E0.01707
G1 X108.332 Y110.958 E0.01707
G1 X108.303 Y110.621 E0.01707
G1 X108.226 Y110.291 E0.01707
G1 X108.159 Y110.115 E0.00952
G1 X108.105 Y109.976 E0.00755
G1 X107.941 Y109.680 E0.01707
G1 X107.738 Y109.410 E0.01706
G1 X100.020 Y101.692 E0.55100
G1 X99.925 Y101.463 E0.01247
G1 X99.925 Y100.373 E0.05506
M204 S1250
G1 E-2.24000 F4200.000
;WIPE_START
G1 F7200.000
G1 X100.283 Y99.925 E-0.31743
G1 X101.355 Y99.925 E-0.59457
;WIPE_END
G1 E-0.04800 F4200.000
G1 Z0.400 F9000.000
G1 X100.283 Y80.075
G1 Z0.200
G1 E3.20000 F2400.000
M204 S1000
G1 F1200.000
G1 X99.925 Y79.717 E0.02552
G1 X99.925 Y78.544 E0.05921
G1 X100.020 Y78.316 E0.01247
G1 X107.792 Y70.525 E0.55553
G1 X107.986 Y70.248 E0.01707
G1 X108.140 Y69.947 E0.01707
G1 X108.201 Y69.769 E0.00952
G1 X108.250 Y69.627 E0.00755
G1 X108.314 Y69.295 E0.01707
G1 X108.332 Y68.958 E0.01707
G1 X108.303 Y68.621 E0.01707
G1 X108.226 Y68.291 E0.01707
G1 X108.159 Y68.115 E0.00952
G1 X108.105 Y67.976 E0.00755
G1 X107.941 Y67.680 E0.01707
G1 X107.738 Y67.410 E0.01706
G1 X100.020 Y59.692 E0.55100
G1 X99.925 Y59.463 E0.01247
G1 X99.925 Y58.283 E0.05960
G1 X100.283 Y57.925 E0.02552
G1 X101.456 Y57.925 E0.05921
G1 X101.684 Y58.020 E0.01247
G1 X109.475 Y65.792 E0.55553
G1 X109.752 Y65.986 E0.01707
G1 X110.053 Y66.140 E0.01707
G1 X110.372 Y66.250 E0.01701
G1 X110.705 Y66.314 E0.01713
G1 X111.042 Y66.332 E0.01706
G1 X111.379 Y66.303 E0.01707
G1 X111.709 Y66.226 E0.01707
G1 X112.010 Y66.111 E0.01631
G1 X112.321 Y65.941 E0.01786
G1 X112.590 Y65.738 E0.01702
G1 X120.308 Y58.020 E0.55100
G1 X120.537 Y57.925 E0.01247
G1 X121.717 Y57.925 E0.05960
G1 X122.075 Y58.283 E0.02552
G1 X122.075 Y59.456 E0.05921
G1 X121.980 Y59.684 E0.01247
G1 X114.208 Y67.475 E0.55553
G1 X114.014 Y67.752 E0.01707
G1 X113.860 Y68.053 E0.01707
G1 X113.750 Y68.373 E0.01706
G1 X113.686 Y68.705 E0.01707
G1 X113.668 Y69.042 E0.01707
G1 X113.697 Y69.379 E0.01707
G1 X113.774 Y69.709 E0.01707
G1 X113.871 Y69.963 E0.01376
G1 X114.061 Y70.323 E0.02052
G1 X114.262 Y70.590 E0.01689
G1 X121.980 Y78.308 E0.55100
G1 X122.075 Y78.537 E0.01247
G1 X122.075 Y79.717 E0.05960
G1 X121.717 Y80.075 E0.02552
G1 X120.544 Y80.075 E0.05921
G1 X120.316 Y79.980 E0.01247
G1 X112.525 Y72.208 E0.55553
G1 X112.248 Y72.014 E0.01707
G1 X111.947 Y71.860 E0.01707
G1 X111.769 Y71.799 E0.00952
G1 X111.627 Y71.750 E0.00755
G1 X111.295 Y71.686 E0.01707
G1 X110.958 Y71.668 E0.01707
G1 X110.621 Y71.697 E0.01707
G1 X110.291 Y71.774 E0.01707
G1 X109.976 Y71.895 E0.01706
G1 X109.680 Y72.059 E0.01707
G1 X109.410 Y72.262 E0.01706
G1 X101.692 Y79.980 E0.55100
G1 X101.463 Y80.075 E0.01247
G1 X100.373 Y80.075 E0.05506
M204 S1250
G1 E-2.24000 F4200.000
;WIPE_START
G1 F7200.000
G1 X99.925 Y79.717 E-0.31744
G1 X99.925 Y78.645 E-0.59456
;WIPE_END
G1 E-0.04800 F4200.000
G1 Z0.400 F9000.000
G1 X80.075 Y79.717
G1 Z0.200
G1 E3.20000 F2400.000
M204 S1000
G1 F1200.000
G1 X79.717 Y80.075 E0.02552
G1 X78.544 Y80.075 E0.05921
G1 X78.316 Y79.980 E0.01247
G1 X70.525 Y72.208 E0.55553
G1 X70.248 Y72.014 E0.01707
G1 X69.947 Y71.860 E0.01707
G1 X69.769 Y71.799 E0.00952
G1 X69.627 Y71.750 E0.00755
G1 X69.295 Y71.686 E0.01707
G1 X68.958 Y71.668 E0.01707
G1 X68.621 Y71.697 E0.01707
G1 X68.291 Y71.774 E0.01707
G1 X68.115 Y71.841 E0.00952
G1 X67.976 Y71.895 E0.00755
G1 X67.680 Y72.059 E0.01707
G1 X67.410 Y72.262 E0.01706
G1 X59.692 Y79.980 E0.55100
G1 X59.463 Y80.075 E0.01247
G1 X58.283 Y80.075 E0.05960
G1 X57.925 Y79.717 E0.02552
G1 X57.925 Y78.544 E0.05921
G1 X58.020 Y78.316 E0.01247
G1 X65.792 Y70.525 E0.55553
G1 X65.986 Y70.248 E0.01707
G1 X66.140 Y69.947 E0.01707
G1 X66.201 Y69.769 E0.00952
G1 X66.250 Y69.627 E0.00755
G1 X66.314 Y69.295 E0.01707
G1 X66.332 Y68.958 E0.01707
G1 X66.303 Y68.621 E0.01707
G1 X66.226 Y68.291 E0.01707
G1 X66.159 Y68.115 E0.00952
G1 X66.105 Y67.976 E0.00755
G1 X65.941 Y67.680 E0.01707
G1 X65.738 Y67.410 E0.01706
G1 X58.020 Y59.692 E0.55100
G1 X57.925 Y59.463 E0.01247
G1 X57.925 Y58.283 E0.05960
G1 X58.283 Y57.925 E0.02552
G1 X59.456 Y57.925 E0.05921
G1 X59.684 Y58.020 E0.01247
G1 X67.475 Y65.792 E0.55553
G1 X67.752 Y65.986 E0.01707
G1 X68.053 Y66.140 E0.01707
G1 X68.231 Y66.201 E0.00952
G1 X68.373 Y66.250 E0.00755
G1 X68.705 Y66.314 E0.01707
G1 X69.042 Y66.332 E0.01707
G1 X69.379 Y66.303 E0.01707
G1 X69.709 Y66.226 E0.01707
G1 X69.885 Y66.159 E0.00952
G1 X70.024 Y66.105 E0.00755
G1 X70.320 Y65.941 E0.01707
G1 X70.590 Y65.738 E0.01706
G1 X78.308 Y58.020 E0.55100
G1 X78.537 Y57.925 E0.01247
G1 X79.717 Y57.925 E0.05960
G1 X80.075 Y58.283 E0.02552
G1 X80.075 Y59.456 E0.05921
G1 X79.980 Y59.684 E0.01247
G1 X72.208 Y67.475 E0.55553
G1 X72.014 Y67.752 E0.01707
G1 X71.860 Y68.053 E0.01707
G1 X71.799 Y68.231 E0.00952
G1 X71.750 Y68.373 E0.00755
G1 X71.686 Y68.705 E0.01707
G1 X71.668 Y69.042 E0.01707
G1 X71.697 Y69.379 E0.01707
G1 X71.774 Y69.709 E0.01707
G1 X71.841 Y69.885 E0.00952
G1 X71.895 Y70.024 E0.00755
G1 X72.059 Y70.320 E0.01707
G1 X72.262 Y70.590 E0.01706
G1 X79.980 Y78.308 E0.55100
G1 X80.075 Y78.537 E0.01247
G1 X80.075 Y79.627 E0.05506
M204 S1250
G1 E-2.24000 F4200.000
;WIPE_START
G1 F7200.000
G1 X79.717 Y80.075 E-0.31744
G1 X78.645 Y80.075 E-0.59456
;WIPE_END
M73 P1 R69
G1 E-0.04800 F4200.000
G1 Z0.400 F9000.000
G1 X80.075 Y48.776
G1 Z0.200
G1 E3.20000 F2400.000
M204 S1000
G1 F1200.000
G1 X127.732 Y48.776 E2.40566
M73 P1 R68
G1 X128.244 Y48.812 E0.02591
G1 X128.728 Y48.918 E0.02502
G1 X129.192 Y49.091 E0.02502
G1 X129.628 Y49.328 E0.02502
G1 X130.024 Y49.625 E0.02501
G1 X130.375 Y49.976 E0.02502
G1 X130.672 Y50.372 E0.02501
G1 X130.909 Y50.807 E0.02502
G1 X131.082 Y51.272 E0.02501
G1 X131.188 Y51.756 E0.02502
G1 X131.224 Y52.269 E0.02597
G1 X131.225 Y127.731 E3.80922
G1 X131.188 Y128.244 E0.02597
G1 X131.082 Y128.728 E0.02502
G1 X130.909 Y129.193 E0.02502
G1 X130.672 Y129.628 E0.02502
G1 X130.375 Y130.024 E0.02502
G1 X130.024 Y130.375 E0.02502
G1 X129.628 Y130.672 E0.02502
G1 X129.193 Y130.909 E0.02502
G1 X128.728 Y131.082 E0.02502
G1 X128.244 Y131.188 E0.02502
G1 X127.731 Y131.225 E0.02597
G1 X52.269 Y131.225 E3.80921
G1 X51.756 Y131.188 E0.02597
G1 X51.272 Y131.082 E0.02502
G1 X50.808 Y130.909 E0.02501
G1 X50.373 Y130.672 E0.02502
G1 X49.976 Y130.375 E0.02502
G1 X49.625 Y130.024 E0.02502
G1 X49.328 Y129.628 E0.02501
G1 X49.091 Y129.193 E0.02502
G1 X48.918 Y128.728 E0.02502
G1 X48.812 Y128.244 E0.02501
G1 X48.776 Y127.731 E0.02597
G1 X48.776 Y52.269 E3.80922
G1 X48.812 Y51.756 E0.02597
G1 X48.918 Y51.272 E0.02502
G1 X49.091 Y50.807 E0.02502
G1 X49.328 Y50.372 E0.02502
G1 X49.625 Y49.976 E0.02502
G1 X49.976 Y49.625 E0.02502
G1 X50.372 Y49.328 E0.02502
G1 X50.807 Y49.091 E0.02502
G1 X51.272 Y48.918 E0.02502
G1 X51.756 Y48.812 E0.02502
G1 X52.269 Y48.776 E0.02597
G1 X79.985 Y48.776 E1.39906
M204 S1250
G1 E-2.24000 F4200.000
;WIPE_START
G1 F7200.000
G1 X81.631 Y48.776 E-0.91200
;WIPE_END
G1 E-0.04800 F4200.000
G1 Z0.400 F9000.000
G1 X130.807 Y51.053
G1 Z0.200
G1 E3.20000 F2400.000
M204 S1000
;TYPE:Solid infill
;WIDTH:0.652585
G1 F1200.000
G1 X129.718 Y49.965 E0.07806
G1 X129.381 Y49.712 E0.02134
G1 X129.003 Y49.506 E0.02183
G1 X128.599 Y49.356 E0.02182
G1 X128.153 Y49.262 E0.02311
G1 X130.738 Y51.847 E0.18530
G1 X130.769 Y52.285 E0.02229
G1 X130.769 Y52.740 E0.02306
G1 X127.260 Y49.231 E0.25160
G1 X126.397 Y49.231 E0.04371
G1 X130.769 Y53.603 E0.31342
G1 X130.769 Y54.465 E0.04371
G1 X125.535 Y49.231 E0.37523
G1 X124.673 Y49.231 E0.04371
G1 X130.769 Y55.327 E0.43704
G1 X130.769 Y56.189 E0.04371
G1 X123.811 Y49.231 E0.49886
G1 X122.949 Y49.231 E0.04371
G1 X130.769 Y57.051 E0.56067
G1 X130.769 Y57.914 E0.04371
G1 X122.086 Y49.231 E0.62248
G1 X121.224 Y49.231 E0.04371
G1 X130.769 Y58.776 E0.68429
G1 X130.769 Y59.638 E0.04371
G1 X120.362 Y49.231 E0.74611
G1 X119.500 Y49.231 E0.04371
G1 X130.769 Y60.500 E0.80792
G1 X130.769 Y61.362 E0.04371
G1 X118.638 Y49.231 E0.86973
G1 X117.775 Y49.231 E0.04371
G1 X130.769 Y62.225 E0.93154
G1 X130.769 Y63.087 E0.04371
G1 X116.913 Y49.231 E0.99336
G1 X116.051 Y49.231 E0.04371
G1 X130.769 Y63.949 E1.05517
G1 X130.769 Y64.811 E0.04371
G1 X115.189 Y49.231 E1.11698
G1 X114.327 Y49.231 E0.04371
G1 X130.769 Y65.673 E1.17879
G1 X130.769 Y66.536 E0.04371
G1 X113.465 Y49.231 E1.24061
G1 X112.602 Y49.231 E0.04371
G1 X120.841 Y57.470 E0.59066
G1 X120.446 Y57.470 E0.02003
G1 X120.116 Y57.607 E0.01812
G1 X111.740 Y49.231 E0.60047
G1 X110.878 Y49.231 E0.04371
G1 X119.666 Y58.019 E0.63000
G1 X119.234 Y58.450 E0.03091
G1 X110.016 Y49.231 E0.66091
G1 X109.154 Y49.231 E0.04371
G1 X118.803 Y58.881 E0.69182
G1 X118.372 Y59.312 E0.03091
G1 X108.291 Y49.231 E0.72272
G1 X107.429 Y49.231 E0.04371
G1 X117.941 Y59.743 E0.75363
G1 X117.510 Y60.174 E0.03091
G1 X106.567 Y49.231 E0.78454
G1 X105.705 Y49.231 E0.04371
G1 X117.079 Y60.605 E0.81544
G1 X116.648 Y61.036 E0.03091
G1 X104.843 Y49.231 E0.84635
G1 X103.980 Y49.231 E0.04371
G1 X116.217 Y61.467 E0.87725
G1 X115.786 Y61.898 E0.03091
G1 X103.118 Y49.231 E0.90816
G1 X102.256 Y49.231 E0.04371
G1 X115.355 Y62.329 E0.93907
G1 X114.923 Y62.761 E0.03091
M73 P2 R68
G1 X101.394 Y49.231 E0.96997
G1 X100.532 Y49.231 E0.04371
G1 X114.492 Y63.192 E1.00088
G1 X114.061 Y63.623 E0.03091
G1 X99.669 Y49.231 E1.03179
G1 X98.807 Y49.231 E0.04371
G1 X113.630 Y64.054 E1.06269
G1 X113.199 Y64.485 E0.03091
G1 X97.945 Y49.231 E1.09360
G1 X97.083 Y49.231 E0.04371
G1 X112.768 Y64.916 E1.12450
G1 X112.337 Y65.347 E0.03091
G1 X96.221 Y49.231 E1.15541
G1 X95.358 Y49.231 E0.04371
G1 X111.822 Y65.695 E1.18032
G1 X111.575 Y65.790 E0.01342
G1 X111.308 Y65.852 E0.01391
G1 X111.132 Y65.867 E0.00892
G1 X94.496 Y49.231 E1.19269
G1 X93.634 Y49.231 E0.04371
G1 X110.010 Y65.607 E1.17403
G1 X109.768 Y65.442 E0.01482
G1 X101.942 Y57.633 E0.56047
G1 X101.546 Y57.470 E0.02170
G1 X101.011 Y57.470 E0.02715
G1 X92.772 Y49.231 E0.59066
G1 X91.910 Y49.231 E0.04371
G1 X100.148 Y57.470 E0.59066
G1 X100.094 Y57.470 E0.00276
G1 X99.690 Y57.874 E0.02895
G1 X91.047 Y49.231 E0.61961
G1 X90.185 Y49.231 E0.04371
G1 X99.470 Y58.515 E0.66563
G1 X99.470 Y59.378 E0.04371
G1 X89.323 Y49.231 E0.72744
G1 X88.461 Y49.231 E0.04371
